teeny/solid/clock.svg

<svg width="15" height="15" viewBox="0 0 15 15" fill="none" xmlns="http://www.w3.org/2000/svg">
<path fill-rule="evenodd" clip-rule="evenodd" d="M0 7.5C0 3.35786 3.35786 0 7.5 0C11.6421 0 15 3.35786 15 7.5C15 11.6421 11.6421 15 7.5 15C3.35786 15 0 11.6421 0 7.5ZM7 7.49991V3H8V7.29289L10.8536 10.1464L10.1464 10.8536L7.14645 7.85355C7.04882 7.75592 7 7.62787 7 7.49991Z" fill="black"/>
</svg>

<svg viewBox="0 0 15 15" xmlns="http://www.w3.org/2000/svg"><path fill-rule="evenodd" d="M0 7.5C0 3.35 3.35 0 7.5 0 11.64 0 15 3.35 15 7.5c0 4.14-3.36 7.5-7.5 7.5C3.35 15 0 11.64 0 7.5Zm7-.01v-4.5h1v4.29l2.85 2.85 -.71.7 -3-3.01c-.1-.1-.15-.23-.15-.36Z"/></svg>
